img/icon-1.svg

<svg xmlns="http://www.w3.org/2000/svg" width="50" height="50" viewBox="0 0 50 50">
  <g fill="none">
    <path fill="#3D3F5B" d="M11.3873636 22.822541C5.10827273 22.822541 0 17.7049636 0 11.4145264 0 5.12408925 5.10827273.00651183971 11.3873636.00651183971 17.6662273.00651183971 22.7745455 5.12408925 22.7745455 11.4145264 22.7745455 17.7049636 17.6662273 22.822541 11.3873636 22.822541zM11.3873636 2.26138434C6.34945455 2.26138434 2.25077273 6.3674408 2.25077273 11.4145264 2.25077273 16.461612 6.34945455 20.5676685 11.3873636 20.5676685 16.4252727 20.5676685 20.5237273 16.461612 20.5237273 11.4145264 20.5237273 6.3674408 16.4252727 2.26138434 11.3873636 2.26138434zM38.6128182 22.822541C32.3337273 22.822541 27.2254545 17.7049636 27.2254545 11.4145264 27.2254545 5.12408925 32.3337273.00651183971 38.6128182.00651183971 44.8916818.00651183971 50 5.12408925 50 11.4145264 50 17.7049636 44.8917273 22.822541 38.6128182 22.822541zM38.6128182 2.26138434C33.5749091 2.26138434 29.4762273 6.3674408 29.4762273 11.4145264 29.4762273 16.461612 33.5749091 20.5676685 38.6128182 20.5676685 43.6507273 20.5676685 47.7491818 16.461612 47.7491818 11.4145264 47.7491818 6.3674408 43.6507273 2.26138434 38.6128182 2.26138434z"/>
    <path fill="#028DFF" fill-opacity=".76" d="M38.6128182,16.6427596 C35.7351364,16.6427596 33.394,14.2974499 33.394,11.4145264 C33.394,8.53160291 35.7351364,6.18629326 38.6128182,6.18629326 C41.4905,6.18629326 43.8314545,8.53160291 43.8314545,11.4145264 C43.8314545,14.2974499 41.4905,16.6427596 38.6128182,16.6427596 Z M38.6128182,8.44116576 C36.9763182,8.44116576 35.6447727,9.77504554 35.6447727,11.4145264 C35.6447727,13.0540073 36.9763182,14.3878871 38.6128182,14.3878871 C40.2493182,14.3878871 41.5806818,13.0540073 41.5806818,11.4145264 C41.5806818,9.77504554 40.2493182,8.44116576 38.6128182,8.44116576 Z"/>
    <path fill="#3D3F5B" d="M11.3873636,49.9934882 C5.10827273,49.9934882 0,44.8758652 0,38.5853825 C0,32.2949909 5.10827273,27.1773679 11.3873636,27.1773679 C17.6662273,27.1773679 22.7745455,32.2949454 22.7745455,38.5853825 C22.7745455,44.8758652 17.6662273,49.9934882 11.3873636,49.9934882 Z M11.3873636,29.4322404 C6.34945455,29.4322404 2.25077273,33.5382969 2.25077273,38.5853825 C2.25077273,43.6324681 6.34945455,47.7386157 11.3873636,47.7386157 C16.4252727,47.7386157 20.5237273,43.6324681 20.5237273,38.5853825 C20.5237273,33.5382969 16.4252727,29.4322404 11.3873636,29.4322404 Z"/>
    <path fill="#028DFF" fill-opacity=".76" d="M11.3873636,43.8136157 C8.50968182,43.8136157 6.16854545,41.468306 6.16854545,38.5854736 C6.16854545,35.7025501 8.50968182,33.3571494 11.3873636,33.3571494 C14.2650455,33.3571494 16.606,35.7025501 16.606,38.5854736 C16.606,41.468306 14.2650455,43.8136157 11.3873636,43.8136157 Z M11.3873636,35.6120219 C9.75086364,35.6120219 8.41931818,36.9459016 8.41931818,38.5854736 C8.41931818,40.2249545 9.75086364,41.5587432 11.3873636,41.5587432 C13.0238636,41.5587432 14.3552273,40.2249545 14.3552273,38.5854736 C14.3552273,36.9459016 13.0238636,35.6120219 11.3873636,35.6120219 Z"/>
    <path fill="#3D3F5B" d="M38.6128182,49.9934882 C32.3337273,49.9934882 27.2254545,44.8759107 27.2254545,38.5853825 C27.2254545,32.2949909 32.3337273,27.1773679 38.6128182,27.1773679 C44.8916818,27.1773679 50,32.2949454 50,38.5853825 C50,44.8758652 44.8917273,49.9934882 38.6128182,49.9934882 Z M38.6128182,29.4322404 C33.5749091,29.4322404 29.4762273,33.5382969 29.4762273,38.5853825 C29.4762273,43.6324681 33.5749091,47.7386157 38.6128182,47.7386157 C43.6507273,47.7386157 47.7491818,43.6324681 47.7491818,38.5853825 C47.7491818,33.5382969 43.6507273,29.4322404 38.6128182,29.4322404 Z"/>
    <path fill="#028DFF" fill-opacity=".76" d="M38.6128182 43.8136157C35.7351364 43.8136157 33.394 41.468306 33.394 38.5854736 33.394 35.7025501 35.7351364 33.3571494 38.6128182 33.3571494 41.4905 33.3571494 43.8314545 35.7025501 43.8314545 38.5854736 43.8314545 41.468306 41.4905 43.8136157 38.6128182 43.8136157zM38.6128182 35.6120219C36.9763182 35.6120219 35.6447727 36.9459016 35.6447727 38.5854736 35.6447727 40.2249545 36.9763182 41.5587432 38.6128182 41.5587432 40.2493182 41.5587432 41.5806818 40.2249545 41.5806818 38.5854736 41.5806818 36.9459016 40.2493182 35.6120219 38.6128182 35.6120219zM11.3873636 15.7321949C11.3846364 15.7321949 11.3819091 15.7321949 11.3789545 15.7321949 11.0790455 15.7299636 10.7921818 15.6077869 10.5824545 15.3928051L5.91804545 10.6119308C5.48363636 10.1666211 5.49186364 9.45282332 5.93631818 9.01762295 6.38036364 8.58224044 7.09304545 8.59043716 7.52781818 9.03583789L11.3991364 13.0037796 21.9984091 2.45632969C22.4397273 2.0174408 23.1523636 2.01999089 23.5899091 2.4617031 24.0280909 2.90350638 24.0255455 3.61734973 23.5846364 4.05623862L12.1805 15.4046903C11.9695 15.6144809 11.6843182 15.7321949 11.3873636 15.7321949z"/>
  </g>
</svg>

<svg xmlns="http://www.w3.org/2000/svg" width="50" height="50"><g fill="none"><path fill="#3D3F5B" d="M11.387 22.823C5.108 22.823 0 17.705 0 11.415 0 5.125 5.108.007 11.387.007c6.28 0 11.388 5.117 11.388 11.408 0 6.29-5.109 11.408-11.388 11.408zm0-20.562c-5.038 0-9.136 4.106-9.136 9.154 0 5.047 4.098 9.153 9.136 9.153 5.038 0 9.137-4.106 9.137-9.153 0-5.048-4.099-9.154-9.137-9.154zm27.226 20.562c-6.28 0-11.388-5.118-11.388-11.408 0-6.29 5.109-11.408 11.388-11.408S50 5.124 50 11.415c0 6.29-5.108 11.408-11.387 11.408zm0-20.562c-5.038 0-9.137 4.106-9.137 9.154 0 5.047 4.099 9.153 9.137 9.153s9.136-4.106 9.136-9.153c0-5.048-4.098-9.154-9.136-9.154z"/><path fill="#028DFF" fill-opacity=".76" d="M38.613 16.643c-2.878 0-5.219-2.346-5.219-5.228 0-2.883 2.341-5.229 5.219-5.229 2.877 0 5.218 2.346 5.218 5.229 0 2.882-2.34 5.228-5.218 5.228zm0-8.202a2.974 2.974 0 0 0 0 5.947 2.974 2.974 0 0 0 0-5.947z"/><path fill="#3D3F5B" d="M11.387 49.993C5.108 49.993 0 44.876 0 38.585c0-6.29 5.108-11.408 11.387-11.408 6.28 0 11.388 5.118 11.388 11.408 0 6.29-5.109 11.408-11.388 11.408zm0-20.56c-5.038 0-9.136 4.105-9.136 9.152 0 5.047 4.098 9.154 9.136 9.154 5.038 0 9.137-4.107 9.137-9.154s-4.099-9.153-9.137-9.153z"/><path fill="#028DFF" fill-opacity=".76" d="M11.387 43.814c-2.877 0-5.218-2.346-5.218-5.229 0-2.882 2.34-5.228 5.218-5.228s5.219 2.346 5.219 5.228c0 2.883-2.341 5.229-5.219 5.229zm0-8.202a2.974 2.974 0 0 0 0 5.947 2.974 2.974 0 0 0 0-5.947z"/><path fill="#3D3F5B" d="M38.613 49.993c-6.28 0-11.388-5.117-11.388-11.408 0-6.29 5.109-11.408 11.388-11.408S50 32.295 50 38.585c0 6.29-5.108 11.408-11.387 11.408zm0-20.56c-5.038 0-9.137 4.105-9.137 9.152 0 5.047 4.099 9.154 9.137 9.154s9.136-4.107 9.136-9.154-4.098-9.153-9.136-9.153z"/><path fill="#028DFF" fill-opacity=".76" d="M38.613 43.814c-2.878 0-5.219-2.346-5.219-5.229 0-2.882 2.341-5.228 5.219-5.228 2.877 0 5.218 2.346 5.218 5.228 0 2.883-2.34 5.229-5.218 5.229zm0-8.202a2.974 2.974 0 0 0 0 5.947 2.974 2.974 0 0 0 0-5.947zm-27.226-19.88h-.008a1.125 1.125 0 0 1-.797-.34l-4.664-4.78a1.129 1.129 0 0 1 .018-1.594 1.124 1.124 0 0 1 1.592.018l3.871 3.968L22 2.456a1.124 1.124 0 0 1 1.59.006 1.129 1.129 0 0 1-.004 1.594L12.18 15.405c-.21.21-.496.327-.793.327z"/></g></svg>
